X:226
T: Galloway Tom
T: Galway Tom
N: O'Farrell's Pocket Companion v.3 (Sky ed. p.111)
N: "Irish"
M: 6/8
L: 1/8
R: jig
Q: 320
K: D
A/B/|ded fdd|edd fdB| ded fdd| edB B2A|
ded fdd| edd fdB| dfd e/f/ge | fdB  B2 :|
P:2
d| AFA A2B| AFA A2B| AFA A2d| fdB B2d|
AFA A2B| AFA A2d| BAB g2e| fdB B2 :|
P:3
A| def a/b/af| a/b/af a/b/af| def aba/g/| fdB B2A|
def a/b/af| b/c'/bg a/b/af|g/a/ge f/g/fe| fdB B2 :|
P:4
d | AFA DFA| DFA DFA| AFA DFA | fdB B2d|
AFA DFA| DFA DFA| BAB g2e| fdB B2 :|
